dist/img/load-more.svg

<svg width="40" height="40" viewBox="0 0 40 40" fill="none" xmlns="http://www.w3.org/2000/svg">
<path d="M38.3347 18.3347C37.4123 18.3347 36.6694 19.0775 36.6694 20C36.6694 29.1918 29.1919 36.6693 20 36.6693C10.8082 36.6693 3.33062 29.1918 3.33062 20C3.33062 10.8081 10.8082 3.3306 20 3.3306C25.0204 3.3306 29.6735 5.54285 32.8245 9.34692H27.0694C26.147 9.34692 25.4041 10.0898 25.4041 11.0122C25.4041 11.9347 26.147 12.6775 27.0694 12.6775H36.4245C37.347 12.6775 38.0898 11.9347 38.0898 11.0122V1.6653C38.0898 0.742855 37.347 0 36.4245 0C35.5021 0 34.7592 0.742855 34.7592 1.6653V6.48162C30.9959 2.37551 25.698 0 20 0C8.97144 0 0 8.97141 0 20C0 31.0285 8.97144 39.9999 20 39.9999C31.0286 39.9999 40 31.0285 40 20C40 19.0775 39.2572 18.3347 38.3347 18.3347Z" fill="#EB0002"/>
</svg>

<svg width="40" height="40" fill="none" xmlns="http://www.w3.org/2000/svg"><path d="M38.335 18.335c-.923 0-1.666.742-1.666 1.665 0 9.192-7.477 16.67-16.669 16.67S3.33 29.191 3.33 20c0-9.192 7.478-16.67 16.67-16.67a16.58 16.58 0 0112.825 6.017h-5.756c-.922 0-1.665.743-1.665 1.665 0 .923.743 1.665 1.665 1.665h9.356c.922 0 1.665-.742 1.665-1.665V1.665C38.09.743 37.347 0 36.424 0c-.922 0-1.665.743-1.665 1.665v4.817A19.94 19.94 0 0020 0C8.971 0 0 8.971 0 20s8.971 20 20 20 20-8.971 20-20c0-.922-.743-1.665-1.665-1.665z" fill="#EB0002"/></svg>
